X:1
%
T:Planxty M'Guire [1]
M:2/4
L:1/8
R:Air
B:P.M. Haverty – One Hundred Irish Airs vol. 2 (1858, No. 161, p. 73)
Z:AK/Fiddler’s Companion
K:G
d|(c/B/A/G/) dG|Bd de/f/|g{ag}f/e/ ag/f/ |gAA d|
c/B/A/G/ Bd |(c'bag)|f/g/a/g/ ~de/f/|gGG e'|
d'/b/d'/e'/ d'b|d'/b/d'/e'/ d'b|c'a ab|c'a ad|B/c/d Gd|
fd Ee|f/g/a ea|g/f/e/f/ dd|(efga)|bgg a/b/|.c'.a.a.d'|
c'/b/a/b/ gd|d/e/d/c/ Bd|gece|fg/a/ df|gGG||

